**kern	**kern
*staff1	*staff2
*clefG2	*clefG2
*k[b-]	*k[b-]
*M2/4	*M2/4
*F:	*F:
(8eeL	4r
16eeL	.
16ffJJ)	.
=129	=129
(16ff#LL	8GL
16gg)	.
16ee'	8cJ 8e
16cc'JJ	.
(16eeLL	8GL
16ff)	.
16dd'	8dJ 8f
16b'JJ	.
=130	=130
24ccLL	8eL
24dd	.
24ccJ	.
24bL	8cJ
24cc	.
24ddJJ	.
24eeLL	4r
24ff	.
24eeJ	.
24ddL	.
24ee	.
24ffJJ	.
=131	=131
24ff#LL	8GGL
24gg	.
24aaJ	.
24ggL	8CJ 8E
24ee	.
24ccJJ	.
24eeLL	8GGL
24ff	.
24ggJ	.
24ffL	8DJ 8F
24dd	.
24bJJ	.
=132	=132
(4cc	4C 4E
4cc#)	4r
*	*clefG2
=133	=133
8dd'L	4r
8dd'J	.
8.ddL	8r
.	8f#
32cc#LL	.
32ddJJJ	.
=134	=134
(4.b-	8g'L
.	8g'J
.	8.gL
8b)	.
.	32f#LL
.	32gJJJ
=135	=135
8cc'L	4.e
8cc'J	.
8.ccL	.
.	8e
32bLL	.
32ccJJJ	.
=136	=136
[4a	8f'L
.	8f'J
16aLL]	16f
*-	*-
